X:24
T:Cumberland Gap
C: Traditional
R: Reel
M:2/2
L:1/4=1/8
K:G
[|: "G" d2 BA G2 A2 | "Em" Beef e2 Bc | "G" d2 BA G2 D2 | "C" EGGA "G" G2 "D7" Bc | 
|"G" d2 BA G2 "D" A2 | "Em" Beef e2 "D7" Bc | "G" d2 BA "Em" GBAG | "C" EGGA "G" G4 :|]
[|: "G" D2 "Em" E2 GBAG | "Am" EAAB "D"A2 "Am"G2 | "G" D2 E2 "Am" GBAG | "C" EGGA "G" G4 |
| D2 E2 "Em" GBAG | "Am" EAAB "D" A2 "Am" G2 | "G" D2 E2 "Em" GB"G"AG | "Am" EG"D7"GA "G"G4 :|]

